icon-svg/centura-round.svg

<svg xmlns="http://www.w3.org/2000/svg" viewBox="0 0 24 24"><path fill="#44739e" d="M11.863 8.979c-3.836 0-6.849 1.918-6.849 4.11s3.013 4.104 6.849 4.104 6.849-1.917 6.849-4.109-3.013-4.11-6.849-4.11m4.658 5.754c0 .548-.822.822-1.644.822a8.4 8.4 0 0 1-3.562-.822 5.72 5.72 0 0 1-2.74-2.192c-.548-.822-.822-1.644-.548-1.918.274-.548.822-.822 1.918-.822a6.25 6.25 0 0 1 3.014.822 6.63 6.63 0 0 1 3.014 2.192c.822.822.822 1.644.548 1.918m2.465-7.935a16.3 16.3 0 0 0-7.123-1.918 14.2 14.2 0 0 0-6.849 1.918A5.3 5.3 0 0 0 2 11.171v1.37a5.36 5.36 0 0 0 3.014 4.652 12.07 12.07 0 0 0 7.123 1.918c2.74 0 5.2-.548 6.849-1.918A5.7 5.7 0 0 0 22 12.541v-1.37a5.3 5.3 0 0 0-3.014-4.378M11.863 18.02c-4.931 0-8.767-2.465-8.767-5.479s4.109-5.48 9.041-5.48 9.041 2.466 9.041 5.48c-.274 3.014-4.383 5.479-9.315 5.479"/></svg>

<?xml version="1.0" encoding="UTF-8"?>
<svg width="24px" height="24px" viewBox="0 0 24 24" version="1.1" fill="#44739e" xmlns="http://www.w3.org/2000/svg" xmlns:xlink="http://www.w3.org/1999/xlink">
            <path d="m 11.863,8.986 c -3.836,0 -6.849,1.918 -6.849,4.11 0,2.192 3.013,4.104 6.849,4.104 3.836,0 6.849,-1.917 6.849,-4.109 0,-2.192 -3.013,-4.11 -6.849,-4.11 m 4.658,5.754 c 0,0.548 -0.822,0.822 -1.644,0.822 A 8.437,8.437 0 0 1 11.315,14.735 5.724,5.724 0 0 1 8.575,12.543 C 8.027,11.721 7.753,10.899 8.027,10.625 8.301,10.077 8.849,9.803 9.945,9.803 v 0 a 6.245,6.245 0 0 1 3.014,0.822 6.634,6.634 0 0 1 3.014,2.192 c 0.822,0.822 0.822,1.644 0.548,1.918 M 18.986,6.8 A 16.266,16.266 0 0 0 11.863,4.882 14.232,14.232 0 0 0 5.014,6.8 5.306,5.306 0 0 0 2,11.178 v 1.37 a 5.362,5.362 0 0 0 3.014,4.652 12.07,12.07 0 0 0 7.123,1.918 c 2.74,0 5.2,-0.548 6.849,-1.918 A 5.7,5.7 0 0 0 22,12.548 v -1.37 A 5.306,5.306 0 0 0 18.986,6.8 m -7.123,11.227 c -4.931,0 -8.767,-2.465 -8.767,-5.479 0,-3.014 4.109,-5.48 9.041,-5.48 4.932,0 9.041,2.466 9.041,5.48 -0.274,3.014 -4.383,5.479 -9.315,5.479"/>

</svg>
